; generated by PrusaSlicer 2.1.0+win64 on 2019-12-04 at 22:50:56 UTC

; 

; external perimeters extrusion width = 0.45mm
; perimeters extrusion width = 0.45mm
; infill extrusion width = 0.45mm
; solid infill extrusion width = 0.45mm
; top infill extrusion width = 0.40mm
; first layer extrusion width = 0.42mm

M73 P0 R281
M73 Q0 S283
M201 X1000 Y1000 Z1000 E5000 ; sets maximum accelerations, mm/sec^2
M203 X200 Y200 Z12 E120 ; sets maximum feedrates, mm/sec
M204 P1250 R1250 T1250 ; sets acceleration (P, T) and retract acceleration (R), mm/sec^2
M205 X8.00 Y8.00 Z0.40 E1.50 ; sets the jerk limits, mm/sec
M205 S0 T0 ; sets the minimum extruding and travel feed rate, mm/sec
M107
M115 U3.8.1 ; tell printer latest fw version
G90 ; use absolute coordinates
M83 ; extruder relative mode
M104 S215 ; set extruder temp
M140 S60 ; set bed temp
M190 S60 ; wait for bed temp
M109 S215 ; wait for extruder temp
G28 W ; home all without mesh bed level
G80 ; mesh bed leveling
G1 Y-3.0 F1000.0 ; go outside print area
G92 E0.0
G1 X60.0 E9.0 F1000.0 ; intro line
M73 Q0 S283
M73 P0 R281
G1 X100.0 E12.5 F1000.0 ; intro line
G92 E0.0
M221 S95
G21 ; set units to millimeters
G90 ; use absolute coordinates
M83 ; use relative distances for extrusion
M900 K30 ; Filament gcode
;BEFORE_LAYER_CHANGE
G92 E0.0
;0.2


G1 E-0.80000 F2100.00000
G1 Z0.600 F12000.000
;AFTER_LAYER_CHANGE
;0.2
G1 X70.470 Y61.841
G1 Z0.200
G1 E0.80000 F2100.00000
M204 S1000
G1 F1200
G1 X71.190 Y61.716 E0.02293
G1 X178.903 Y61.719 E3.37725
G1 X179.651 Y61.888 E0.02405
G1 X180.179 Y62.205 E0.01930
G1 X180.596 Y62.654 E0.01919
G1 X180.872 Y63.200 E0.01919
G1 X180.986 Y63.801 E0.01919
G1 X180.988 Y146.122 E2.58112
G1 X180.931 Y146.600 E0.01510
G1 X180.768 Y147.057 E0.01521
G1 X180.511 Y147.464 E0.01510
G1 X180.172 Y147.805 E0.01510
G1 X179.530 Y148.163 E0.02304
G1 X178.810 Y148.289 E0.02293
G1 X71.193 Y148.289 E3.37425
G1 X70.711 Y148.233 E0.01521
G1 X70.253 Y148.073 E0.01521
G1 X69.842 Y147.816 E0.01521
G1 X69.495 Y147.472 E0.01532
G1 X69.138 Y146.833 E0.02293
G1 X69.012 Y146.113 E0.02293
G1 X69.011 Y63.897 E2.57782
G1 X69.067 Y63.415 E0.01521
G1 X69.227 Y62.958 E0.01521
G1 X69.484 Y62.546 E0.01521
G1 X69.828 Y62.199 E0.01532
G1 X70.418 Y61.871 E0.02116
G1 F9600
G1 X71.190 Y61.716 E-0.16377
G1 X74.060 Y61.716 E-0.59623
G1 E-0.04000 F2100.00000
G1 Z0.800 F12000.000
G1 X137.725 Y82.124
G1 Z0.200
G1 E0.80000 F2100.00000
G1 F1200
G1 X137.831 Y81.807 E0.01048
G1 X137.972 Y81.504 E0.01048
G1 X138.144 Y81.217 E0.01048
G1 X138.346 Y80.951 E0.01048
G1 X138.576 Y80.708 E0.01048
G1 X138.831 Y80.492 E0.01048
G1 X139.108 Y80.304 E0.01048
G1 X139.403 Y80.147 E0.01048
G1 X139.714 Y80.024 E0.01048
G1 X140.036 Y79.934 E0.01048
G1 X140.366 Y79.880 E0.01048
G1 X140.691 Y79.863 E0.01019
G1 X141.033 Y79.880 E0.01075
G1 X141.364 Y79.934 E0.01051
G1 X141.686 Y80.024 E0.01048
G1 X141.997 Y80.147 E0.01048
G1 X142.292 Y80.304 E0.01048
G1 X142.569 Y80.492 E0.01048
G1 X142.824 Y80.708 E0.01048
G1 X143.054 Y80.951 E0.01048
G1 X143.256 Y81.217 E0.01048
G1 X143.428 Y81.504 E0.01048
G1 X143.569 Y81.807 E0.01048
G1 X143.675 Y82.124 E0.01048
G1 X143.747 Y82.450 E0.01048
G1 X143.783 Y82.783 E0.01048
G1 X143.783 Y83.117 E0.01048
G1 X143.747 Y83.450 E0.01048
G1 X143.675 Y83.776 E0.01048
G1 X143.569 Y84.093 E0.01048
G1 X143.428 Y84.396 E0.01048
G1 X143.261 Y84.675 E0.01019
G1 X143.054 Y84.948 E0.01075
G1 X142.824 Y85.192 E0.01051
G1 X142.569 Y85.408 E0.01048
G1 X142.292 Y85.596 E0.01048
G1 X141.997 Y85.753 E0.01048
G1 X141.686 Y85.876 E0.01048
G1 X141.364 Y85.966 E0.01048
G1 X141.034 Y86.020 E0.01048
G1 X140.700 Y86.038 E0.01048
G1 X140.366 Y86.020 E0.01048
G1 X140.036 Y85.966 E0.01048
G1 X139.714 Y85.876 E0.01048
G1 X139.412 Y85.756 E0.01019
G1 X139.109 Y85.596 E0.01075
G1 X138.831 Y85.408 E0.01051
G1 X138.576 Y85.192 E0.01048
G1 X138.346 Y84.949 E0.01048
G1 X138.144 Y84.683 E0.01048
G1 X137.972 Y84.396 E0.01048
G1 X137.831 Y84.093 E0.01048
G1 X137.725 Y83.776 E0.01048
G1 X137.653 Y83.450 E0.01048
G1 X137.617 Y83.117 E0.01048
G1 X137.617 Y82.783 E0.01048
G1 X137.653 Y82.450 E0.01048
G1 X137.712 Y82.182 E0.00860
G1 X138.080 Y82.264 F12000.000
G1 F1200
G1 X138.182 Y81.947 E0.01044
G1 X138.305 Y81.680 E0.00920
G1 X138.457 Y81.429 E0.00920
G1 X138.634 Y81.195 E0.00920
G1 X138.836 Y80.982 E0.00920
G1 X139.060 Y80.792 E0.00920
G1 X139.303 Y80.628 E0.00920
G1 X139.562 Y80.490 E0.00920
G1 X139.835 Y80.382 E0.00920
G1 X140.117 Y80.303 E0.00920
G1 X140.407 Y80.256 E0.00920
G1 X140.691 Y80.240 E0.00892
G1 X140.993 Y80.256 E0.00947
G1 X141.283 Y80.303 E0.00921
G1 X141.565 Y80.382 E0.00920
G1 X141.838 Y80.490 E0.00920
G1 X142.097 Y80.628 E0.00920
G1 X142.340 Y80.792 E0.00920
G1 X142.564 Y80.982 E0.00920
G1 X142.766 Y81.195 E0.00920
G1 X142.943 Y81.429 E0.00920
G1 X143.095 Y81.680 E0.00920
G1 X143.218 Y81.947 E0.00920
G1 X143.312 Y82.225 E0.00920
G1 X143.375 Y82.512 E0.00920
G1 X143.406 Y82.803 E0.00920
G1 X143.406 Y83.097 E0.00920
G1 X143.375 Y83.388 E0.00920
G1 X143.312 Y83.675 E0.00920
G1 X143.218 Y83.953 E0.00920
G1 X143.095 Y84.220 E0.00920
G1 X142.948 Y84.463 E0.00892
G1 X142.766 Y84.704 E0.00947
G1 X142.564 Y84.918 E0.00921
G1 X142.340 Y85.108 E0.00920
G1 X142.097 Y85.272 E0.00920
G1 X141.838 Y85.410 E0.00920
G1 X141.565 Y85.518 E0.00920
G1 X141.283 Y85.597 E0.00920
G1 X140.993 Y85.644 E0.00920
G1 X140.700 Y85.660 E0.00920
G1 X140.407 Y85.644 E0.00920
G1 X140.117 Y85.597 E0.00920
G1 X139.835 Y85.518 E0.00920
G1 X139.570 Y85.413 E0.00892
G1 X139.303 Y85.273 E0.00947
G1 X139.060 Y85.108 E0.00921
G1 X138.836 Y84.918 E0.00920
G1 X138.634 Y84.705 E0.00920
G1 X138.457 Y84.471 E0.00920
G1 X138.305 Y84.220 E0.00920
G1 X138.182 Y83.953 E0.00920
G1 X138.088 Y83.675 E0.00920
G1 X138.025 Y83.388 E0.00920
G1 X137.994 Y83.097 E0.00920
G1 X137.994 Y82.803 E0.00920
G1 X138.025 Y82.512 E0.00920
G1 X138.067 Y82.322 E0.00608
G1 X137.844 Y82.028 F12000.000
G1 F9600
G1 X138.182 Y81.947 E-0.08158
G1 X138.305 Y81.680 E-0.06099
G1 X138.457 Y81.429 E-0.06099
G1 X138.634 Y81.195 E-0.06099
G1 X138.836 Y80.982 E-0.06099
G1 X139.060 Y80.792 E-0.06099
G1 X139.303 Y80.628 E-0.06099
G1 X139.562 Y80.490 E-0.06099
G1 X139.835 Y80.382 E-0.06099
G1 X140.117 Y80.303 E-0.06099
G1 X140.407 Y80.256 E-0.06099
G1 X140.691 Y80.240 E-0.05914
G1 X140.736 Y80.242 E-0.00941
G1 E-0.04000 F2100.00000
G1 Z0.800 F12000.000
G1 X163.017 Y82.783
G1 Z0.200
G1 E0.80000 F2100.00000
G1 F1200
G1 X163.053 Y82.450 E0.01048
G1 X163.125 Y82.124 E0.01048
G1 X163.231 Y81.807 E0.01048
G1 X163.372 Y81.504 E0.01048
G1 X163.544 Y81.217 E0.01048
G1 X163.746 Y80.951 E0.01048
G1 X163.976 Y80.708 E0.01048
G1 X164.231 Y80.492 E0.01048
G1 X164.508 Y80.304 E0.01048
G1 X164.803 Y80.147 E0.01048
G1 X165.114 Y80.024 E0.01048
G1 X165.436 Y79.934 E0.01048
G1 X165.766 Y79.880 E0.01048
G1 X166.091 Y79.863 E0.01019
G1 X166.433 Y79.880 E0.01075
G1 X166.764 Y79.934 E0.01051
G1 X167.086 Y80.024 E0.01048
G1 X167.397 Y80.147 E0.01048
G1 X167.692 Y80.304 E0.01048
G1 X167.969 Y80.492 E0.01048
G1 X168.224 Y80.708 E0.01048
G1 X168.454 Y80.951 E0.01048
G1 X168.656 Y81.217 E0.01048
G1 X168.828 Y81.504 E0.01048
G1 X168.969 Y81.807 E0.01048
G1 X169.075 Y82.124 E0.01048
G1 X169.147 Y82.450 E0.01048
G1 X169.183 Y82.783 E0.01048
G1 X169.183 Y83.117 E0.01048
G1 X169.147 Y83.450 E0.01048
G1 X169.075 Y83.776 E0.01048
G1 X168.969 Y84.093 E0.01048
G1 X168.828 Y84.396 E0.01048
G1 X168.656 Y84.683 E0.01048
G1 X168.454 Y84.949 E0.01048
G1 X168.224 Y85.192 E0.01048
G1 X167.969 Y85.408 E0.01048
G1 X167.692 Y85.596 E0.01048
G1 X167.397 Y85.753 E0.01048
G1 X167.086 Y85.876 E0.01048
G1 X166.764 Y85.966 E0.01048
G1 X166.434 Y86.020 E0.01048
G1 X166.100 Y86.038 E0.01048
G1 X165.766 Y86.020 E0.01048
G1 X165.436 Y85.966 E0.01048
G1 X165.114 Y85.876 E0.01048
G1 X164.812 Y85.756 E0.01019
G1 X164.509 Y85.596 E0.01075
G1 X164.231 Y85.408 E0.01051
G1 X163.976 Y85.192 E0.01048
G1 X163.746 Y84.949 E0.01048
G1 X163.544 Y84.683 E0.01048
G1 X163.372 Y84.396 E0.01048
G1 X163.231 Y84.093 E0.01048
G1 X163.125 Y83.776 E0.01048
G1 X163.053 Y83.450 E0.01048
G1 X163.017 Y83.117 E0.01048
G1 X163.017 Y82.843 E0.00860
G1 X163.394 Y82.843 F12000.000
G1 F1200
G1 X163.425 Y82.512 E0.01044
G1 X163.488 Y82.225 E0.00920
G1 X163.582 Y81.947 E0.00920
G1 X163.705 Y81.680 E0.00920
G1 X163.857 Y81.429 E0.00920
G1 X164.034 Y81.195 E0.00920
G1 X164.236 Y80.982 E0.00920
G1 X164.460 Y80.792 E0.00920
G1 X164.703 Y80.628 E0.00920
G1 X164.962 Y80.490 E0.00920
G1 X165.235 Y80.382 E0.00920
G1 X165.517 Y80.303 E0.00920
G1 X165.807 Y80.256 E0.00920
G1 X166.091 Y80.240 E0.00892
G1 X166.393 Y80.256 E0.00947
G1 X166.683 Y80.303 E0.00921
G1 X166.965 Y80.382 E0.00920
G1 X167.238 Y80.490 E0.00920
G1 X167.497 Y80.628 E0.00920
G1 X167.740 Y80.792 E0.00920
G1 X167.964 Y80.982 E0.00920
G1 X168.166 Y81.195 E0.00920
G1 X168.343 Y81.429 E0.00920
G1 X168.495 Y81.680 E0.00920
G1 X168.618 Y81.947 E0.00920
G1 X168.712 Y82.225 E0.00920
G1 X168.775 Y82.512 E0.00920
G1 X168.806 Y82.803 E0.00920
G1 X168.806 Y83.097 E0.00920
G1 X168.775 Y83.388 E0.00920
G1 X168.712 Y83.675 E0.00920
G1 X168.618 Y83.953 E0.00920
G1 X168.495 Y84.220 E0.00920
G1 X168.343 Y84.471 E0.00920
G1 X168.166 Y84.705 E0.00920
G1 X167.964 Y84.918 E0.00920
G1 X167.740 Y85.108 E0.00920
G1 X167.497 Y85.272 E0.00920
G1 X167.238 Y85.410 E0.00920
G1 X166.965 Y85.518 E0.00920
G1 X166.683 Y85.597 E0.00920
G1 X166.393 Y85.644 E0.00920
G1 X166.100 Y85.660 E0.00920
G1 X165.807 Y85.644 E0.00920
G1 X165.517 Y85.597 E0.00920
G1 X165.235 Y85.518 E0.00920
G1 X164.970 Y85.413 E0.00892
G1 X164.703 Y85.273 E0.00947
G1 X164.460 Y85.108 E0.00921
G1 X164.236 Y84.918 E0.00920
G1 X164.034 Y84.705 E0.00920
G1 X163.857 Y84.471 E0.00920
G1 X163.705 Y84.220 E0.00920
G1 X163.582 Y83.953 E0.00920
G1 X163.488 Y83.675 E0.00920
G1 X163.425 Y83.388 E0.00920
G1 X163.394 Y83.097 E0.00920
G1 X163.394 Y82.903 E0.00608
G1 X163.113 Y82.664 F12000.000
G1 F9600
G1 X163.425 Y82.512 E-0.08158
G1 X163.488 Y82.225 E-0.06099
G1 X163.582 Y81.947 E-0.06099
G1 X163.705 Y81.680 E-0.06099
G1 X163.857 Y81.429 E-0.06099
G1 X164.034 Y81.195 E-0.06099
G1 X164.236 Y80.982 E-0.06099
G1 X164.460 Y80.792 E-0.06099
G1 X164.703 Y80.628 E-0.06099
G1 X164.962 Y80.490 E-0.06099
G1 X165.235 Y80.382 E-0.06099
G1 X165.517 Y80.303 E-0.06098
G1 X165.553 Y80.297 E-0.00757
G1 E-0.04000 F2100.00000
G1 Z0.800 F12000.000
G1 X178.213 Y64.492
G1 Z0.200
G1 E0.80000 F2100.00000
G1 F1200
G1 X178.213 Y101.413 E1.15764
G1 X128.587 Y101.413 E1.55598
G1 X128.587 Y64.492 E1.15764
G1 X178.153 Y64.492 E1.55410
G1 X178.590 Y64.115 F12000.000
G1 F1200
G1 X178.590 Y101.790 E1.18129
G1 X128.210 Y101.790 E1.57963
G1 X128.210 Y64.115 E1.18129
G1 X178.530 Y64.115 E1.57775
G1 X178.468 Y64.496 F12000.000
G1 F9600
G1 X178.536 Y67.772 E-0.76000
G1 E-0.04000 F2100.00000
G1 Z0.800 F12000.000
G1 X178.100 Y65.370
G1 Z0.200
G1 E0.80000 F2100.00000
G1 F1200
G1 X177.504 Y64.774 E0.02650
G1 X176.969 Y64.774 E0.01684
G1 X177.930 Y65.736 E0.04277
G1 X177.930 Y66.271 E0.01684
G1 X176.434 Y64.774 E0.06659
G1 X175.899 Y64.774 E0.01684
G1 X177.930 Y66.806 E0.09041
G1 X177.930 Y67.341 E0.01684
G1 X175.363 Y64.774 E0.11423
G1 X174.828 Y64.774 E0.01684
G1 X177.930 Y67.876 E0.13805
G1 X177.930 Y68.412 E0.01684
G1 X174.293 Y64.774 E0.16186
G1 X173.758 Y64.774 E0.01684
G1 X177.930 Y68.947 E0.18568
G1 X177.930 Y69.482 E0.01684
G1 X173.223 Y64.774 E0.20950
G1 X172.687 Y64.774 E0.01684
G1 X177.930 Y70.017 E0.23332
G1 X177.930 Y70.552 E0.01684
G1 X172.152 Y64.774 E0.25714
G1 X171.617 Y64.774 E0.01684
G1 X177.930 Y71.088 E0.28096
G1 X177.930 Y71.623 E0.01684
G1 X171.082 Y64.774 E0.30478
G1 X170.546 Y64.774 E0.01684
G1 X177.930 Y72.158 E0.32860
G1 X177.930 Y72.693 E0.01684
G1 X170.011 Y64.774 E0.35242
G1 X169.476 Y64.774 E0.01684
G1 X177.930 Y73.229 E0.37624
G1 X177.930 Y73.764 E0.01684
G1 X168.941 Y64.774 E0.40006
G1 X168.406 Y64.774 E0.01684
G1 X177.930 Y74.299 E0.42387
G1 X177.930 Y74.834 E0.01684
G1 X167.870 Y64.774 E0.44769
G1 X167.335 Y64.774 E0.01684
G1 X177.930 Y75.369 E0.47151
G1 X177.930 Y75.905 E0.01684
G1 X166.800 Y64.774 E0.49533
G1 X166.265 Y64.774 E0.01684
G1 X177.930 Y76.440 E0.51915
G1 X177.930 Y76.975 E0.01684
G1 X165.730 Y64.774 E0.54297
G1 X165.194 Y64.774 E0.01684
G1 X177.930 Y77.510 E0.56679
G1 X177.930 Y78.046 E0.01684
G1 X164.659 Y64.774 E0.59061
M73 Q0 S282
G1 X164.124 Y64.774 E0.01684
G1 X177.930 Y78.581 E0.61443
M73 P0 R280
G1 X177.930 Y79.116 E0.01684
G1 X163.589 Y64.774 E0.63825
G1 X163.053 Y64.774 E0.01684
G1 X177.930 Y79.651 E0.66207
G1 X177.930 Y80.186 E0.01684
G1 X162.518 Y64.774 E0.68588
G1 X161.983 Y64.774 E0.01684
G1 X177.930 Y80.722 E0.70970
G1 X177.930 Y81.257 E0.01684
G1 X161.448 Y64.774 E0.73352
G1 X160.913 Y64.774 E0.01684
G1 X177.930 Y81.792 E0.75734
G1 X177.930 Y82.327 E0.01684
G1 X160.377 Y64.774 E0.78116
G1 X159.842 Y64.774 E0.01684
G1 X177.930 Y82.862 E0.80498
G1 X177.930 Y83.398 E0.01684
G1 X159.307 Y64.774 E0.82880
G1 X158.772 Y64.774 E0.01684
G1 X177.930 Y83.933 E0.85262
G1 X177.930 Y84.468 E0.01684
G1 X158.236 Y64.774 E0.87644
G1 X157.701 Y64.774 E0.01684
G1 X177.930 Y85.003 E0.90026
G1 X177.930 Y85.539 E0.01684
G1 X157.166 Y64.774 E0.92408
G1 X156.631 Y64.774 E0.01684
G1 X177.930 Y86.074 E0.94789
G1 X177.930 Y86.609 E0.01684
G1 X156.096 Y64.774 E0.97171
G1 X155.560 Y64.774 E0.01684
G1 X177.930 Y87.144 E0.99553
G1 X177.930 Y87.679 E0.01684
G1 X155.025 Y64.774 E1.01935
G1 X154.490 Y64.774 E0.01684
G1 X177.930 Y88.215 E1.04317
G1 X177.930 Y88.750 E0.01684
G1 X153.955 Y64.774 E1.06699
G1 X153.420 Y64.774 E0.01684
G1 X177.930 Y89.285 E1.09081
G1 X177.930 Y89.820 E0.01684
G1 X152.884 Y64.774 E1.11463
G1 X152.349 Y64.774 E0.01684
G1 X167.432 Y79.857 E0.67122
G1 X167.176 Y79.755 E0.00864
G1 X166.672 Y79.633 E0.01634
G1 X151.814 Y64.774 E0.66124
G1 X151.279 Y64.774 E0.01684
G1 X166.084 Y79.580 E0.65889
G1 X165.591 Y79.622 E0.01556
G1 X150.743 Y64.774 E0.66078
G1 X150.208 Y64.774 E0.01684
G1 X165.153 Y79.719 E0.66510
G1 X164.759 Y79.861 E0.01317
G1 X149.673 Y64.774 E0.67139
G1 X149.138 Y64.774 E0.01684
G1 X164.403 Y80.040 E0.67935
G1 X164.080 Y80.252 E0.01216
G1 X148.603 Y64.774 E0.68882
G1 X148.067 Y64.774 E0.01684
G1 X163.789 Y80.496 E0.69967
G1 X163.528 Y80.771 E0.01191
G1 X147.532 Y64.774 E0.71189
G1 X146.997 Y64.774 E0.01684
G1 X163.299 Y81.076 E0.72549
G1 X163.101 Y81.414 E0.01231
G1 X146.462 Y64.774 E0.74053
G1 X145.926 Y64.774 E0.01684
G1 X162.940 Y81.788 E0.75714
G1 X162.818 Y82.201 E0.01357
G1 X145.391 Y64.774 E0.77555
G1 X144.856 Y64.774 E0.01684
G1 X162.745 Y82.664 E0.79613
G1 X162.741 Y83.194 E0.01670
G1 X144.321 Y64.774 E0.81974
G1 X143.786 Y64.774 E0.01684
G1 X163.116 Y84.105 E0.86027
G1 F9600
G1 X160.530 Y81.519 E-0.76000
G1 E-0.04000 F2100.00000
G1 Z0.800 F12000.000
G1 X164.940 Y85.929
G1 Z0.200
G1 E0.80000 F2100.00000
G1 F1200
G1 X177.930 Y98.919 E0.57812
G1 X177.930 Y98.384 E0.01684
G1 X165.854 Y86.308 E0.53742
G1 X166.100 Y86.321 E0.00775
G1 X166.387 Y86.306 E0.00905
G1 X177.930 Y97.849 E0.51370
G1 X177.930 Y97.313 E0.01684
G1 X166.852 Y86.235 E0.49303
G1 X167.262 Y86.110 E0.01351
G1 X177.930 Y96.778 E0.47475
G1 X177.930 Y96.243 E0.01684
G1 X167.634 Y85.947 E0.45822
G1 X167.971 Y85.748 E0.01230
G1 X177.930 Y95.708 E0.44322
G1 X177.930 Y95.172 E0.01684
G1 X168.276 Y85.518 E0.42964
G1 X168.551 Y85.258 E0.01191
G1 X177.930 Y94.637 E0.41742
G1 X177.930 Y94.102 E0.01684
G1 X168.795 Y84.967 E0.40654
G1 X169.009 Y84.645 E0.01215
G1 X177.930 Y93.567 E0.39704
M73 Q0 S281
G1 X177.930 Y93.032 E0.01684
G1 X169.189 Y84.290 E0.38902
G1 X169.332 Y83.899 E0.01313
G1 X177.930 Y92.496 E0.38263
M73 P0 R279
G1 X177.930 Y91.961 E0.01684
G1 X169.430 Y83.461 E0.37827
G1 X169.466 Y82.962 E0.01576
G1 X177.930 Y91.426 E0.37668
G1 X177.930 Y90.891 E0.01684
G1 X169.422 Y82.382 E0.37865
G1 X169.348 Y82.048 E0.01077
G1 X169.193 Y81.618 E0.01438
G1 X178.100 Y90.525 E0.39639
G1 F9600
G1 X175.514 Y87.939 E-0.76000
G1 E-0.04000 F2100.00000
G1 Z0.800 F12000.000
G1 X178.100 Y99.624
G1 Z0.200
G1 E0.80000 F2100.00000
G1 F1200
G1 X143.250 Y64.774 E1.55092
G1 X142.715 Y64.774 E0.01684
G1 X177.930 Y99.989 E1.56719
G1 X177.930 Y100.525 E0.01684
G1 X142.180 Y64.774 E1.59101
G1 X141.645 Y64.774 E0.01684
